X: 41
T:New Stove, The
M:6//8
L:1/8
C:F. Ferrel
R:Jig
K:D
A|"D"f2A "A"e2A|"D"ded dAF|"D"DFA ded|"G"BGG G2A|"A"g2A f2A|"A"efe e2c|!
|1 "A"ABA BAG|"D"F3 F2 A:|2 "A"Aba gec|"D"d3 d||FG|"D"A3 AFD|"D"A,DF A2F
|
